images/codeberg-icon.svg

<svg width="134" height="128" viewBox="0 0 134 128" fill="none" xmlns="http://www.w3.org/2000/svg">
<path d="M67.8107 31.1417C67.7258 31.1425 67.6426 31.1571 67.5661 31.1847C67.4897 31.2122 67.423 31.2521 67.3693 31.3013C67.3156 31.3504 67.2769 31.4079 67.256 31.4694C67.2351 31.531 67.2312 31.595 67.247 31.6574L92.888 128C105.293 122.644 115.78 113.632 122.955 102.161L68.3177 31.3554C68.2657 31.2896 68.1919 31.2353 68.1029 31.1978C68.0139 31.1602 67.9128 31.1408 67.8107 31.1417Z" fill="url(#paint0_linear_6_11)"/>
<path d="M66.56 0C29.7992 0 0 29.8718 0 66.7207C0 79.2553 3.52159 91.5369 10.1639 102.158L65.6583 30.2403C66.0565 29.7208 67.0607 29.7208 67.4589 30.2403L122.955 102.161C129.597 91.5392 133.12 79.2564 133.12 66.7207C133.12 29.8718 103.321 0 66.56 0Z" fill="white"/>
<defs>
<linearGradient id="paint0_linear_6_11" x1="1.37055" y1="3.82696e-05" x2="37.8755" y2="131.392" gradientUnits="userSpaceOnUse">
<stop stop-color="white" stop-opacity="0"/>
<stop offset="0.495173" stop-color="white" stop-opacity="0.3"/>
<stop offset="1" stop-color="white" stop-opacity="0.3"/>
</linearGradient>
</defs>
</svg>

<svg xmlns="http://www.w3.org/2000/svg" width="134" height="128" fill="none"><path fill="url(#a)" d="M67.81 31.142a.7.7 0 0 0-.244.043.6.6 0 0 0-.197.116.4.4 0 0 0-.113.168.33.33 0 0 0-.009.188L92.888 128a66.6 66.6 0 0 0 30.067-25.839L68.318 31.355a.54.54 0 0 0-.215-.157.7.7 0 0 0-.292-.056"/><path fill="#fff" d="M66.56 0C29.8 0 0 29.872 0 66.72a66.83 66.83 0 0 0 10.164 35.438L65.658 30.24c.398-.52 1.403-.52 1.8 0l55.497 71.921a66.85 66.85 0 0 0 10.165-35.44C133.12 29.87 103.321 0 66.56 0"/><defs><linearGradient id="a" x1="1.371" x2="37.876" y1="0" y2="131.392" gradientUnits="userSpaceOnUse"><stop stop-color="#fff" stop-opacity="0"/><stop offset=".495" stop-color="#fff" stop-opacity=".3"/><stop offset="1" stop-color="#fff" stop-opacity=".3"/></linearGradient></defs></svg>
